img/icon/discord.svg

<?xml version="1.0" encoding="UTF-8" standalone="no"?>
<svg
   viewBox="0 0 127.14025 96.36"
   version="1.1"
   id="svg4"
   width="127.14025"
   height="96.360001"
   xmlns="http://www.w3.org/2000/svg"
   xmlns:svg="http://www.w3.org/2000/svg">
  <defs
     id="defs8" />
  <path
     d="M 107.6999,8.07 A 105.15,105.15 0 0 0 81.469904,0 a 72.06,72.06 0 0 0 -3.36,6.83 97.68,97.68 0 0 0 -29.11,0 72.37,72.37 0 0 0 -3.36,-6.83 105.89,105.89 0 0 0 -26.25,8.09 c -16.6,24.56 -21.1,48.51 -18.84999999,72.12 v 0 a 105.73,105.73 0 0 0 32.16999999,16.15 77.7,77.7 0 0 0 6.89,-11.11 68.42,68.42 0 0 1 -10.85,-5.18 c 0.91,-0.66 1.8,-1.34 2.66,-2 a 75.57,75.57 0 0 0 64.32,0 c 0.87,0.71 1.76,1.39 2.66,2 a 68.68,68.68 0 0 1 -10.87,5.19 77,77 0 0 0 6.89,11.1 105.25,105.25 0 0 0 32.189996,-16.14 v 0 c 2.64,-27.38 -4.51,-51.11 -18.9,-72.15 z M 42.449904,65.69 c -6.27,0 -11.45,-5.69 -11.45,-12.69 0,-7 5,-12.74 11.43,-12.74 6.43,0 11.57,5.74 11.46,12.74 -0.11,7 -5.05,12.69 -11.44,12.69 z m 42.24,0 c -6.28,0 -11.44,-5.69 -11.44,-12.69 0,-7 5,-12.74 11.44,-12.74 6.44,0 11.54,5.74 11.43,12.74 -0.11,7 -5.04,12.69 -11.43,12.69 z"
     id="path2" />
</svg>

<svg xmlns="http://www.w3.org/2000/svg" viewBox="0 0 127.14 96.36"><path d="M107.7,8.07A105.15,105.15,0,0,0,81.47,0a72.06,72.06,0,0,0-3.36,6.83A97.68,97.68,0,0,0,49,6.83,72.37,72.37,0,0,0,45.64,0,105.89,105.89,0,0,0,19.39,8.09C2.79,32.65-1.71,56.6.54,80.21h0A105.73,105.73,0,0,0,32.71,96.36,77.7,77.7,0,0,0,39.6,85.25a68.42,68.42,0,0,1-10.85-5.18c.91-.66,1.8-1.34,2.66-2a75.57,75.57,0,0,0,64.32,0c.87.71,1.76,1.39,2.66,2a68.68,68.68,0,0,1-10.87,5.19,77,77,0,0,0,6.89,11.1A105.25,105.25,0,0,0,126.6,80.22h0C129.24,52.84,122.09,29.11,107.7,8.07ZM42.45,65.69C36.18,65.69,31,60,31,53s5-12.74,11.43-12.74S54,46,53.89,53,48.84,65.69,42.45,65.69Zm42.24,0C78.41,65.69,73.25,60,73.25,53s5-12.74,11.44-12.74S96.23,46,96.12,53,91.08,65.69,84.69,65.69Z"/></svg>
